X: 17303
T: Hey Johnny Cope
R: barndance
M: 4/4
K: Gdorian
|:G4G>A B<c|d2G2A>G F<D|F4F>G A<B|c2F2A>G F<D|
G4G>A B<c|d2G2B>A G<A|F2f>e d<c B>A|1 G4G,4:|2 G4D2G>A||
|:B3c B2B,2|B>c d<e f4|A2G>F F2G>c|A>B c<B A2F2|
G2A>B A2B>c|B2c>d A2G>F|D2f>e d<c B>A|1 G4G2G>A:|2 G4G>c =B<A||
|:G2D2G>A =B<c|d>c B<A c>B A<G|F4F>G A<B|c>A f<c B>A G<F|
G2F>E D<C =B,>A,|G,<A, B,>C D2C>=B,|C2D<G D>C B,<A,|1 G,4G>c =B<A:|2|G,8||
|:g4g2f<g|a2g2a>g f<d|f4f2f>g|a2f2g2f<a|
g4g2f<g|a2f2g2d2|f2c2d>c B<A|G4G,4:|
|:G>^F G<A G>A B<c|d>_e d<c B>A B<G|A<F c<F d<F c<F|A>c f<c B>A G<F|
B>c B<A G>^F G<D|G>A B<c d>c d<B|c>d f<g f>d c<A|G4G,4:|
|:d>B G<B d>B G<B|G>B d<g b>g d<B|c>A F<A c>A F<A|F>A c<f a>f c<A|
d>B d<f c>A c<f|B>G B<d A>F A<c|(3dcB (3cBA (3BAG (3AG^F|G4G,4:|

